X:1
T:Motion and stillness
T:The Water Mill
T:Four Poems by Fredegond Shove
T:R. Vaughan Williams
T:4
C:R. Vaghan Williams
%%score 1 { ( 2 3 ) | ( 4 5 ) }
L:1/8
Q:1/4=90
M:3/4
K:C
V:1 treble nm="Voice"
V:2 treble nm="Piano"
V:3 treble 
V:4 bass 
V:5 bass 
V:1
"^Allegretto tranquillo" z6 | z2 z2 z!pp! F | G G F3 D | G c _B2 A3/2 F/ | G3/2 G/ F3 D | %5
w: |There|is a mill, an|an- cient one, Brown with|rain, and dry with|
 G3 C D F | G3 G A F | G3 F G c | _B4 A2 | G4 ^F2 | E4 E G | E4 E G |[M:4/4] A2 E G A c B G | %13
w: sun, The mil- ler's|house is joined with|it And in Ju-|ly the|swal- lows|flit To and|fro, in and|out, Round the win- dows, all a-|
[M:3/4] E6- | E4- E z |[M:2/4] z2 z F |[M:3/4] G G F2 D3/2 F/ | G c _B2 A G/ F/ | G2 F2 D3/2 F/ | %19
w: bout;|_ _|The|mill wheel whirrs and the|wa- ters roar Out of the|dark arch by the|
 G3 C D F | G3 G A F | G4 D F | G2 c2 _B A | G4 ^F2 | E4 D2 | E4 G2 | E2 E D E G | A3 G A2 | %28
w: door The wil- lows|toss their sil- ver|heads, And the|phlox- es in the|gar- den|beds Turn|red, turn|gray, With the time of|day, And smell|
 c3 B G2 | E4 D2 | E4 G2 | E6- | E z z2 z2 | z D A A G E/ G/ | A/ A z/ c2 B3/2 c/ | %35
w: sweet in the|rain, then|die a-|way.|_|The mil- ler's cat is a|tab- by, she Is as|
 A G/ A/ G E C D | E3 B A A/ A/ | B B/ B/ d d B B | A A E G!>(! ^F G | %39
w: lean as a health- y cat can|be, She plays in the|loft, where the sun- beams stroke The|sack's fat backs, and bee- tles|
[M:4/4] E G/ G/ ^F G!>)! E2 z ^C |[M:3/4]!pp! ^F4 E2 | ^F4 E E | A B c2 B2 | A4 G2 | A4 z2 | z6 | %46
w: choke In the flour- y dust. The|wheel goes|round And the|mil- ler's wife sleeps|fast and|sound.||
 z D A A G E | A A c2 B c | A3 E C D | E3 B A A | B3 B d d | B3 B d c |[M:2/4] A G =F A | %53
w: There is a clock in-|side the house, Ve- ry|tall and ve- ry|bright, It strikes the|hour when sha- dows|drowse Or show- ers|make the win- dows|
[M:3/4] G4 D F | G3 D D F |[M:2/4] G3 D |[M:3/4] G2 _B2 A A | G4 F2 | G6 |[M:4/4] z4 z2 z!mf! F | %60
w: white; Loud and|sweet, in rain and|sun, The|clock strikes and the|work is|done.|The|
[M:3/4] G G F2 D3/2 F/ | G c _B2 A3/2 F/ | G2 F3/2 F/ D F | G3 C D F | G3 G A F | %65
w: mil- ler's wife and his|eld- est girl Clean and|cook while the mills wheels|whirl. The chil- dren|take their meat to|
[M:4/4] G2 E F G2 c2 | _B2 A A G2 ^F2 |[M:3/4] E4 (E G) | E4 (E G) | E3 D/ D/ E G | A2 E G A c | %71
w: school, And at dusk they|play by the twi- lit|pool; Bare- *|foot, bare- *|head, Till the day is|dead, And their mo- ther|
 A G E D E2- |[M:2/4] E2- E z | z2 z!mf! E | A A G E/ G/ |[M:3/4] A A c2 B3/2 c/ | %76
w: calls them in to bed.|_ _|The|sup- per stands on the|clean- scrubbed board, And the|
[M:2/4] A A G E/ E/ |[M:3/4] C D E3 E |[Q:1/4=100]"^poco animato" c4 c2 | d3 c B2 | A4 G2 | %81
w: mil- ler drinks like a|thirst- y lord; The|young men|come for his|daugh- ter's|
 E4[Q:1/4=80]"^poco allarg." E F |[M:4/4] G G _B3 A G F | G4 z C D F |[M:3/4] G2 G G A F | %85
w: sake, But she|nev- er knows which one to|take: She drives her|nee- dle and spins her|
[M:2/4] G2!<(! G!<)! G |[M:3/4] d4 c2 | _B4!>(! _A!>)! A | G6 | G6 | G6- | G2- G z z2 | %92
w: stuff, While the|moon shines|gold, and the|lamp|shines|buff.|_ _|
 !fermata!z6 |] %93
w: |
V:2
 (G4 D>F) | (G4 D>F) | (G2 F2 D>F) | (G2 _B2 [FA]2) | (G2 F2 [_B,D]2) | (G4 D>F) | (G4 D>F) | %7
 (G3 F Gc) | _B4 A2 | G4 ^F2 | (E3 D E2) | (E3 D E2) |[M:4/4] E3 G [EA][G=c][^FB][DG] | %13
[M:3/4] (E4 B,>D) | (E4 B,>D |[M:2/4] =C>E D>F) |[M:3/4] (G2 F2 D>F) | (G2 _B2 A2) | %18
 (G2 [DF]2 [_B,D]2) | (G4 D>F) | (G4 D>F) | (G4 D>F) | (G2 c2 _BA) | (G4 ^F2) | (E3 D EG) | %25
 (E3 D EG) | (E3 D EG) | ([^CA]3 [DG] [EA]2 | [EG=c]3 [D^FB] [B,DG]2) | (E4 B,>D) | (E4 B,>D) | %31
 (E4 [G,B,D]2) | ([A,^CE]2 [G,B,D]2) ([A,CE]2 | [G,B,D]2) ([A,=CE]2 [B,DG]2 | %34
 [CEA]2 [EGc]2 [D^FB]2) | ([CEA]2 [DG]2 CD) | [EGB]4 [^FAd]2 | ([EGB]2 [^FAd]2 [EGB]2 | %38
 [^FAd]2 [EGB]2!>(! [DFA]2) |[M:4/4] ([EG]2 ^F2!>)! [G,B,E]2- [G,B,E]) z | %40
[M:3/4][K:bass]!pp! (^A,/^G,/^F,/G,/ A,/B,/^C/D/ E/D/C/B,/ | %41
 ^A,/^G,/^F,/G,/ A,/B,/^C/D/[K:treble] E/^F/E/D/) | (=C/D/E/^F/ E/F/G/F/ E/F/E/D/ | %43
 C/D/E/D/ C/D/E/D/[K:bass] C/B,/A,/G,/) | ^F,2[K:treble]!p! !^![^FA]!^!D!^![EG]!^!C | (A4 G2) | %46
 (A4 G2) | (A2 E2 [DG]2) | (A/G/A/G/ E3 ^F) | [EGB]3 ([EGB] [^FAd]2) | [EGB]3 ([EGB] [D^FA]2) | %51
 [EGB]3 [EGB] ([=FAd][EGc] |[M:2/4] [DFA][CEG] [A,DF][CFA]) |[M:3/4] ([_B,DG]4 [A,CD]2) | %54
 ([_B,DG]4 [A,CD]2) |[M:2/4] ([_B,DG]2 [A,CD]2) |[M:3/4] ([_B,DG][CEA] [DF_B]2 [CEA]2 | %57
 [_B,DG]4 [A,CF]2) | z2 (G2 D>F) |[M:4/4] (G2 D>D G2 D>F) |[M:3/4] (G2 F2 D>F) | %61
 (G2 [G_B]2 [FA]2) | ([EG]2 [DF]2 [_B,D]2) | (G4 D>F) | (G4 D>F) |[M:4/4] (G2 EF G2 [Ec]2) | %66
 (_B2 A2 G2 ^F2) |[M:3/4] (^C/B,/A,/B,/ C/D/E/F/ G/F/E/D/ | ^C/B,/A,/B,/ C/D/E/F/ G/F/E/D/) | %69
 (^C/B,/A,/B,/ C/B,/A,/B,/ C/D/E/G/) | (A/G/E/G/ A/G/E/G/ A/G/A/c/ | A/G/E/G/ (E2) D2 | %72
[M:2/4] E2 (D2) | E2 (3GEG) | !^![^CEA]2 !^![DG]2 |[M:3/4] !^![^CEA]2 (!^![F=c]2 !^![EB]2) | %76
[M:2/4] (!^![DA]2 !^![B,G]2) |[M:3/4] [A,C]2 [G,B,E]4 | [EAc]6 | [^Fd]3 [Ec] B2 | %80
 [CEA]4!>(! DG!>)! |!p! [CE]4 (3C"_colla voce"E=F |[M:4/4]!<(! [_B,D]4!<)!!>(! [DG]3!>)!!p! [CF] | %83
 z4 z [A,C] [_B,D]2 |[M:3/4] [CE]4 [_B,D]2 |[M:2/4]!<(! [CE]4!<)! |[M:3/4] d4 c2 | _B4 _A2 | %88
 (G4 D>F) | (G4 D>F) | G4 x2 | G4 g2 |!ppp! !fermata![eg]6 |] %93
V:3
 E/D/C/D/ E2 _B,2 | E/D/C/D/ E2 _B,2 | E/D/C/E/ D2 _B,2 | E/D/E/F/ G2 x2 | E/D/C/E/ D2 x2 | %5
 E/D/C/D/ E2 _B,2 | E/D/C/D/ E2 _B,2 | E/D/C/D/ ED EF | G/F/_E/F/ GEFD | =E/D/C/D/ ECD=B, | %10
 ^C/B,/A,/B,/ CA, B,D | ^C/B,/A,/B,/ CA, B,D |[M:4/4] ^C/B,/A,/B,/ CD x4 | %13
[M:3/4] ^C/B,/A,/B,/ C2 G,2 | ^C/B,/A,/B,/ C2 G,2 |[M:2/4] A,2 _B,2 |[M:3/4] E/D/C/E/ D2 _B,2 | %17
 E/D/E/F/ G2 F2 | x6 | E/D/C/D/ E2 _B,2 | E/D/C/D/ E2 _B,2 | E/D/C/D/ E2 _B,2 | E4 DF | %23
 E/D/C/D/ E/D/C/E/ DB, | ^C/B,/A,/B,/ CA, B,D | ^C/B,/A,/B,/ CA, B,D | ^C/B,/A,/B,/ CA, B,D | x6 | %28
 x6 | ^C/B,/A,/B,/ C2 G,2 | ^C/B,/A,/B,/ C2 G,2 | ^C/B,/A,/B,/ C2 x2 | x6 | x6 | x6 | x6 | x6 | %37
 x6 | x6 |[M:4/4] x8 |[M:3/4][K:bass] x6 | x4[K:treble] x2 | x6 | x4[K:bass] x2 | x2[K:treble] x4 | %45
 !^!^F!^!E!^!F!^!D !^!E!^!C | !^!^F!^!E!^!F!^!D !^!E!^!C | ^F/E/F/D/ x4 | C4 z D | x6 | x6 | x6 | %52
[M:2/4] x4 |[M:3/4] x6 | x6 |[M:2/4] x4 |[M:3/4] x6 | x6 | x2 E/D/C/E/ _B,2 | %59
[M:4/4] E/D/C/E/ _B,2 E/D/C/E/ B,2 |[M:3/4] E/D/C/E/ D2 _B,2 | E/D/E/F/ x4 | x6 | %63
 E/D/C/D/ E2 _B,2 | E/D/C/D/ E2 _B,2 |[M:4/4] E/D/C/D/ x6 | (3GF_E (3F!>(!ED (3=E!>)!DC (3DC=B, | %67
[M:3/4] x6 | x6 | x6 | x6 | x2 (3^CB,A, (3B,A,G, |[M:2/4] (3^CB,A, (3B,A,G, | (3^CDE D2 | x4 | %75
[M:3/4] x6 |[M:2/4] x4 |[M:3/4] x6 | x6 | x6 | x6 | x6 |[M:4/4] x8 | x8 |[M:3/4] x6 |[M:2/4] x4 | %86
[M:3/4] z GFG- (3GF_E | z!>(! _E_D!>)!E- (3E=DC | =E/D/C/D/ E2 _B,2 | E/D/C/D/ E2 _B,2 | %90
 E/D/C/D/ E4 | E/D/C/D/ E2 e/d/c/d/ | x6 |] %93
V:4
!pp! z (.C,, .G,,.C, .G,,._B,,) | z (.C,, .G,,.C, .G,,._B,,) | z (.C,, ._B,,.D, .G,,.B,,) | %3
 (.C,.D, ._E,.G,._B,,.D,) | (.C,.=E, .G,,._B,, ._E,,.G,,) | z (.C,, .G,,.C, .G,,._B,,) | %6
 z (.C,, .G,,.C, .G,,._B,,) | z (.C,, .G,,._B,, .C,.D,) | (._E,.G,.E,.G, ._B,,.D,) | %9
 (.C,.=E,.C,.E, .G,,.=B,,) | z (.E,, .A,,.E,, .G,,.E,,) | z (.E,, .A,,.E,,.G,,.E,,) | %12
[M:4/4] z (E,, A,,B,, ^C,E,D,B,,) |[M:3/4] z (.A,,, .E,,.A,, .E,,.G,,) | %14
 z (.A,,, .E,,.A,, .E,,.G,, |[M:2/4] .F,,.A,,.G,,._B,,) |[M:3/4] z (.E,, ._B,,.D, .G,,.B,,) | %17
 (.C,.D, ._E,.G,.D,.F,) | (.C,.=E,.G,,._B,, ._E,,.G,,) | z (.C,, .G,,.C, .G,,._B,,) | %20
 z (.C,, .G,,.C, .G,,._B,,) | z (.C,, .G,,.C, .G,,._B,,) | z (.C,,.G,,.C, .G,.C) | %23
 z (.C,, .G,,.C, .B,,.D,) | z (.E,, .A,,.E,, .G,,.E,,) | z (.E,, .A,,.E,, .G,,.E,,) | %26
 z (.E,, .A,,.E,, .G,,.E,,) | z (A,,E,A, B,^C) | z (E,,G,,B,, E,G,) | z (.A,,, .E,,.A,, .E,,.G,,) | %30
 z (.A,,, .E,,.A,, .E,,.G,,) | z (.A,,, .E,,.A,, .E,,.G,,) | (.A,,.^C, .E,,.G,,) (.A,,.C, | %33
 .E,,.G,,) (A,,E,G,A,, | E,A,,G,A,,^F,A,,) | (E,A,,B,A,, A,A,,) | (E,,B,,E,G, A,2) | %37
 (E,G, A,2 E,G, | A,2 E,G, A,2) |[M:4/4] (E,G, A,2 E,,B,,E,B,,) | %40
[M:3/4] (^F,,^C, (F,,2 [E,,B,,]2)) | (^F,,^C, F,,2 [E,,B,,]2) | (E,^F, G,2 F,2) | %43
 ([A,E]4 [E,,B,,]2) | !^!D,,!^!D,!^!^F,!^!D,!^!A,,!^!E, | z !^!D,!^!^F,!^!D,!^!A,,!^!E, | %46
 z !^!D,!^!^F,!^!D,!^!A,,!^!E, | z !^!D, !^!A,,!^!E,!^!A,!^!E, | %48
 !^!A,,!^!E,!^!A,!^!E, !^!A,,!^!E, | !^!E,,!^!B,, !tenuto!B,4 | !^!E,,!^!B,, !tenuto!B,4 | %51
 !^!E,,!^!B,, !tenuto!B,2 !^!D,,!^!A,, |[M:2/4] !tenuto!D,4 |[M:3/4] (D,/E,/F,/E,/) !>!D,4 | %54
 (D,/E,/F,/E,/) !>!D,4 |[M:2/4] (D,/E,/F,/E,/ D,2- |[M:3/4] D,/E,/F,/E,/) (D,E,F,E, | %57
 D,E,F,E, D,2) |!pp! z2 z (.C,, .G,,._B,,) |[M:4/4] z (.C,, .G,,._B,,)!<(! z (.C,,!<)! .G,,.B,,) | %60
[M:3/4]!mf! z (.C,, ._B,,.D, .G,,.B,,) | (.C,.D, ._E,.G,.D,.F,) | (.C,.=E,.G,,._B,, ._E,,.G,,) | %63
 z (.C,, .G,,.C, .G,,._B,,) | z (.C,, .G,,.C, .G,,._B,,) | %65
[M:4/4] (C,2 C,,/G,,/C,/D,/ E,/D,/C,/G,,/ C,,/G,,/C,/D,/) | (_E,2 _B,,2 C,2 G,,2) | %67
[M:3/4]!pp! [A,,E,]4 [E,,B,,]2 | [A,,E,]4 [E,,B,,]2 | (E,3 D, E,G,) | [A,,E,=C]6- | %71
 [A,,E,C]2 ([A,,E,]2 [E,,B,,]2 |[M:2/4] [A,,E,]2) ([E,,B,,]2 | [A,,E,]2 [E,B,]2) | %74
!mf! !^![A,,E,A,]2 !^![E,B,]2 |[M:3/4] !^![^C,A,]2 (!^![A,=C]2 !^![G,B,]2) | %76
[M:2/4] (!^![F,A,]2 !^![E,G,]2) |[M:3/4] [F,,C,]2 (E,,B,,E,G,) | (A,,E,A,!<(![I:staff -1]EAc)!<)! | %79
[I:staff +1] (D,,A,, ^F,2[I:staff -1] D^F) |[I:staff +1] A,,E,A,C B,2 | (3A,,E,A, x4 | %82
[M:4/4] (G,,D,G,A, _B,3 A,) | z2 (.C,,.G,, .C,.F, G,2) |[M:3/4] [C,G,]4 [_B,,F,]2 | %85
[M:2/4] [C,G,]4 |[M:3/4] [_B,,F,]4 [_A,,_E,]2 | [_G,,_D,]4!pp! [=E,,=B,,]2 | %88
 z (.C,, .G,,.C, .G,,._B,,) | z (.C,, .G,,.C, .G,,._B,,) | z (.C,, .G,,.C,.E,.G,) | %91
 z .C, .G,.C[K:treble] .E.G | .c.e !fermata!g4 |] %93
V:5
 x6 | x6 | x6 | x6 | x6 | x6 | x6 | x6 | x6 | x6 | x6 | x6 |[M:4/4] x8 |[M:3/4] x6 | x6 | %15
[M:2/4] x4 |[M:3/4] x6 | x6 | x6 | x6 | x6 | x6 | x6 | x6 | x6 | x6 | x6 | x6 | x6 | x6 | x6 | x6 | %32
 x6 | x6 | x6 | x6 | x6 | x6 | x6 |[M:4/4] x8 |[M:3/4] x6 | x6 | A,,6 | x6 | x6 | x6 | x6 | x6 | %48
 x6 | x6 | x6 | x6 |[M:2/4] x4 |[M:3/4] G,,6 | G,,6 |[M:2/4] G,,4- |[M:3/4] G,,2 G,,4 | G,,6 | x6 | %59
[M:4/4] x8 |[M:3/4] x6 | x6 | x6 | x6 | x6 |[M:4/4] x8 | x8 |[M:3/4] x6 | x6 | A,,6 | x6 | x6 | %72
[M:2/4] x4 | x4 | x4 |[M:3/4] x6 |[M:2/4] x4 |[M:3/4] x6 | x6 | x6 | x6 | x6 |[M:4/4] x8 | x8 | %84
[M:3/4] x6 |[M:2/4] x4 |[M:3/4] x6 | x6 | x6 | x6 | x6 | x4[K:treble] x2 | x6 |] %93

